X:1
T:Rondo Alla Turca
T:Rondo Alla Turca
T:for Flute and Piano
T:W. A. Mozart (1756-1791)
C:Wolfgang Amadeus Mozart (1756 - 1791)
%%score 1 { 2 | 3 }
L:1/8
M:2/4
K:C
V:1 treble nm="Flute" snm="Fl."
V:2 treble nm="Piano"
V:3 bass 
V:1
!p! (B/A/^G/A/ | c) z!p! (d/c/B/c/ | e) z (f/e/^d/e/ | b/a/^g/a/ b/a/g/a/ | c'2) .a.c' | %5
{ga} .b.a .g.a |{ga} .b.a .g.a |{ga} .b.a .g.^f | e2 .e.f | .g.g ((a/g/f/e/)) | d2 z2 | z4 | %12
 z2 .c.d | .e.e ((f/e/d/c/)) | B2 z2 | z4 | z2 (B/A/^G/A/ | c) z (d/c/B/c/ | e) z (f/e/^d/e/ | %19
!<(! b/a/^g/a/ b/a/g/a/!<)! |!f! c'2)!p! .a.b | .c'.b .a.^g | .a.e .f.d | c2 TB2({AB)} | A2 || %25
[K:A]!f! .a.b | c'2 .a.b | .c'.b .a.g | .f.g .a.b | .g.e .a.b | c'2 .a.b | .c'.b .a.g | .f.b .g.e | %33
 a2 z2 | z4 | z4 | z4 | z4 | z4 | z4 | z4 | z2 ||[K:A]!p! c'/d'/c'/b/ | a/b/a/g/ f/a/g/f/ | %44
 ^e/f/g/e/ c/^d/e/c/ | f/^e/f/g/ a/g/a/b/ | c'/^b/c'/b/ c'/d'/c'/=b/ | a/b/a/g/ f/a/g/f/ | %48
 e/f/g/e/ c/^d/e/c/ | ^d/e/f/d/ ^B/c/d/B/ | c2!p! e/=d/c/=B/ | A/B/c/d/ e/f/g/a/ | %52
 a/g/f/e/ e/d/c/B/ | A/B/c/d/ e/f/g/a/ | ^ab e/d/c/B/ | A/B/c/d/ e/f/g/a/ | a/g/f/e/ e/d/c/B/ | %57
 c/e/A/c/ B/d/G/B/ | A2!p! c'/d'/c'/b/ | a/b/a/g/ f/a/g/f/ | ^e/f/g/e/ c/^d/e/c/ | %61
 f/^e/f/g/ a/g/a/b/ | c'/^b/c'/b/ c'/b/c'/^a/ | d'/c'/d'/c'/ d'/c'/d'/c'/ | d'/c'/b/a/ g/a/b/g/ | %65
 a/b/c'/f/ ^e/f/g/e/ | f2 z2 | z4 | z4 | z4 | z4 | z4 | z4 | z4 | z2!f! .a.b | c'2 .a.b | %76
 .c'.b .a.g | .f.g .a.b | .g.e .a.b | c'2 .a.b | .c'.b .a.g | .f.b .g.e | a2 || %83
[K:C]!p! (B/A/^G/A/ | c) z!p! (d/c/B/c/ | e) z (f/e/^d/e/ | b/a/^g/a/ b/a/g/a/ | c'2) .a.c' | %88
{ga} .b.a .g.a |{ga} .b.a .g.a |{ga} .b.a .g.^f | e2 .e.f | .g.g (((a/g/f/e/))) | d2 z2 | z4 | %95
 z2 .c.d | .e.e (((((f/e/d/c/))))) | B2 z2 | z4 | z2 (B/A/^G/A/ | c) z (d/c/B/c/ | %101
 e) z (f/e/^d/e/ |!<(! b/a/^g/a/ b/a/g/a/!<)! |!f! c'2)!p! .a.b | .c'.b .a.^g | .a.e .f.d | %106
 c2 TB2({AB)} | A2 ||[K:A]!f!!f!!f!!f!!f! .a.b |!f! c'2 .a.b | .c'.b .a.g | .f.g .a.b | %112
 .g.e!f!!f!!f!!f! .a.b |!f! c'2 .a.b | .c'.b .a.g | .f.b .g.e | a2 z2 | z4 | z4 | z4 | z4 | z4 | %122
 z4 | z4 | z2 c'>c' | c'4 | c'4 | (d'/c'/).b/.c'/ (d'/c'/).b/.c'/ | d'4 | %129
{/d'} .c'{/d'}.c'{/d'} .c'{/d'}.c' | (b3 e') | c'4 | c'4 | (d'/c'/).b/.c'/ (d'/c'/).b/.c'/ | d'4 | %135
{/d'} c'4 |{/c'} .b{/c'}.b{/c'} .b{/c'}.b | a2!p!{/ea} c'>c' |{/ea} c'4 |{/ea} c'4 | %140
 (d'/c'/).b/.c'/ (d'/c'/).b/.c'/ | d'4 |{/d'} .c'{/d'}.c'{/d'} .c'{/d'}.c' | (b3 e') |!f! c'4 | %145
 c'4 | (d'/c'/).b/.c'/ (d'/c'/).b/.c'/ | d'4 |{/d'} c'4 |{/c'} .b{/c'}.b{/c'} .b{/c'}.b | %150
!ff! (a3 c') | (a3 e') | (a3 c') | .a.c'.a.e' | .a2 !>!a2 | !>!a2 z2 |] %156
V:2
 z2 |!p! x4 | x4 | x4 | x4 | x4 | x4 | x4 | E2 z2 | x4 | G2 [ce][=d=f] | [eg][eg] (a/g/f/e/) | %12
 [Bd]2 z2 | x4 | E2 [Ac][Bd] | [ce][ce] (f/e/d/c/) | [^GB]2 z2 | x4 | x4 |!<(! x4!<)! |!f! x4!p! | %21
 x4 | x4 | .[A,A].[A,A] .[^G,^G].[G,G] | [A,A]2 ||[K:A] z2 |!f! AAAA | AAAA | DDDD | EEEE | AAAA | %31
 AAAA | DDEE | A2!f! [Aa][Bb] |!f! [cc']2 [Aa][Bb] | [cc'][Bb][Aa][Ag] | [Ff][Gg][Aa][Bb] | %37
 [Gg][Ee][Aa][Bb] | [cc']2 [Aa][Bb] | [cc'][Bb][Aa][Ag] | [Ff][Bb][Gg][Ee] | [Aa]2 ||[K:A] z2 | %43
!p! x4 | x4 | x4 | x4 | x4 | x4 | x4 | z2 z2 | z4 | z4 | z4 | z4 | z4 | z4 | z4 | z2 z2 |!p! x4 | %60
 x4 | x4 | x4 | x4 | x4 | x4 | [CFA]2 c'/d'/c'/b/ | a/b/a/g/ f/a/g/f/ | ^e/f/g/e/ c/^d/e/c/ | %69
 f/^e/f/g/ a/g/a/b/ | c'/^b/c'/b/ c'/b/c'/^a/ | d'/c'/d'/c'/ d'/c'/d'/c'/ | d'/c'/b/a/ g/a/b/g/ | %73
 a/b/c'/f/ ^e/f/g/e/ | f2 z2 |!f!!f!!f! AAAA | AAAA | DDDD | EEEE | AAAA | AAAA | DDEE | z2 || %83
[K:C] z2 |!p! x4 | x4 | x4 | x4 | x4 | x4 | x4 | E2 z2 | x4 | G2!p! [ce][=d=f] | %94
 [eg][eg] (((a/g/f/e/)) | [Bd]2) z2 | x4 | E2!p! [Ac][Bd] | [ce][ce] (((f/e/d/c/)) | [^GB]2) z2 | %100
 x4 | x4 |!<(! x4!<)! |!f! x4!p! | x4 | x4 | .[A,A].[A,A] .[^G,^G].[G,G] | [A,A]2 ||[K:A] z2 | %109
!f!!f!!f!!f!!f! AAAA | AAAA | DDDD | EEEE | AAAA | AAAA | DDEE | [A,A]2!f!!f!!f! A/a/B/b/ | %117
!f! c/c'/ z A/a/B/b/ | c/c'/B/b/ A/a/G/g/ | F/f/G/g/ A/a/B/b/ | G/g/E/e/ A/a/B/b/ | %121
 c/c'/ z A/a/B/b/ | c/c'/B/b/ A/a/G/g/ | F/f/B/b/ G/g/E/e/ | [Aa]2 c2 |!f!!f!!f! AAAA | AAAA | %127
 AAAA | DDDD | AAAA | EEEE | AAAA | AAAA | AAAA | DDDD | AAAA | EEEE | A,/E/C/E/!p! A,/E/C/E/ | %138
 A,/E/C/E/ A,/E/C/E/ | A,/E/C/E/ A,/E/C/E/ | A,/E/C/E/ A,/E/C/E/ | A,/F/D/F/ A,/F/D/F/ | %142
 A,/E/C/E/ A,/E/C/E/ | E,/E/G,/E/ E,/E/G,/E/ |!f!!f!!f!!f! AAAA | AAAA | AAAA | DDDD | AAAA | %149
 EEEE |!ff! ([Ace]3 c) | (A3 e) | (A3 c) | .A.c.A.e | .A2 !>![Ace]2 | !>![Ace]2 z2 |] %156
V:3
 z2 | ([A,,E,A,][I:staff -1].[EAce]) .[EAce].[EAce] | %2
[I:staff +1] ([A,,E,A,][I:staff -1].[EAce]) .[EAce].[EAce] | %3
[I:staff +1] .[A,,E,A,][I:staff -1].[EAce][I:staff +1] .[A,,E,A,][I:staff -1].[EAce] | %4
[I:staff +1] ([A,,E,A,][I:staff -1].[EAce]) .[EAce].[EAce] | %5
[I:staff +1] ([E,,B,,E,][I:staff -1].[B,EB]) .[B,EB].[B,EB] | %6
[I:staff +1] ([E,,B,,E,][I:staff -1].[B,EB]) .[B,EB].[B,EB] | %7
[I:staff +1] .[E,,B,,E,][I:staff -1].[B,EB][I:staff +1] .[B,,,B,,][I:staff -1].[B,B] | %8
[I:staff +1] [E,,E,]2 z2 | .[C,,C,][I:staff -1].[Cc][I:staff +1] .[E,,E,][I:staff -1].[Ee] | %10
[I:staff +1] [G,,G,]2 z2 | C,C E,E | G,2 z2 | %13
 .[A,,,A,,][I:staff -1].[A,A][I:staff +1] .[C,,C,][I:staff -1].[Cc] |[I:staff +1] [E,,E,]2 z2 | %15
 A,,A, C,C | E,2 z2 | ([A,,E,A,][I:staff -1].[EAce]) .[EAce].[EAce] | %18
[I:staff +1] ([A,,E,A,][I:staff -1].[EAce]) .[EAce].[EAce] | %19
[I:staff +1] .[A,,E,A,][I:staff -1].[EAce][I:staff +1] .[A,,E,A,][I:staff -1].[EAce] | %20
[I:staff +1] ([G,,G,][I:staff -1].[^DA^d]) .[DAd].[DAd] | %21
[I:staff +1] .[E,,E,][I:staff -1].[A,EA][I:staff +1] .[D,,D,][I:staff -1].[B,FB] | %22
[I:staff +1] .[C,,C,][I:staff -1].[A,EA][I:staff +1] .[D,,D,][I:staff -1].[B,FB] | %23
[I:staff +1] .[E,,E,].[E,,E,] .[E,,E,].[E,,E,] | [A,,,A,,]2 ||[K:A] z2 |{A,,C,E,} A,A,A,A, | %27
{A,,C,E,} A,A,A,A, |{D,,F,,A,,} D,D,{^D,,F,,A,,} ^D,D, |{E,,G,,B,,} E,E,E,E, |{A,,C,E,} A,A,A,A, | %31
{A,,C,E,} A,A,A,A, |{D,,F,,A,,} D,D,{E,,G,,B,,} E,E, | A,,2 z2 |{A,,C,E,} A,A,A,A, | %35
{A,,C,E,} A,A,A,A, |{D,,F,,A,,} D,D,{^D,,F,,A,,} ^D,D, |{E,,G,,B,,} E,E,E,E, |{A,,C,E,} A,A,A,A, | %39
{A,,C,E,} A,A,A,A, |{D,,F,,A,,} D,D,{E,,G,,B,,} E,E, | A,,2 ||[K:A] z2 | %43
 .[F,,F,][I:staff -1].[CFA] .[CFA].[CFA] |[I:staff +1] .[G,,G,][I:staff -1].[CGB] .[CGB].[CGB] | %45
[I:staff +1] .[F,,F,][I:staff -1].[CFA] .[CFA].[CFA] | %46
[I:staff +1] .[^E,,^E,][I:staff -1].[C^EG] .[CEG].[CEG] | %47
[I:staff +1] .[F,,F,][I:staff -1].[CFA] .[CFA].[CFA] | %48
[I:staff +1] .[G,,G,][I:staff -1].[CEG] .[CEG].[CEG] | %49
[I:staff +1] .[G,,G,][I:staff -1].[^DFG] .[DFG].[DFG] |[I:staff +1] [CE]2 z2 | A,[CE] [CE][CE] | %52
 B,[DE] G,[DE] | A,[CE] [CE][CE] | E,[G,D] [G,D][G,D] | A,[CE] [CE][CE] | B,[DE] G,[DE] | %57
 A,F, D,E, | A,,A, z2 | .[F,,F,][I:staff -1].[CFA] .[CFA].[CFA] | %60
[I:staff +1] .[G,,G,][I:staff -1].[CGB] .[CGB].[CGB] | %61
[I:staff +1] .[F,,F,][I:staff -1].[CFA] .[CFA].[CFA] | %62
[I:staff +1] .[C,C][I:staff -1].[CGc] .[C=Gc].[CFc] | %63
[I:staff +1] .B,,[I:staff -1].[B,FB] .[B,FB].[B,FB] | %64
[I:staff +1] .B,,[I:staff -1].[B,GB] .[B,GB].[B,GB] | %65
[I:staff +1] .C,[I:staff -1].[CFA][I:staff +1] .[C,,C,][I:staff -1].[CGB] | %66
[I:staff +1] [F,,F,]2 z2 | F,[A,C] [A,C][A,C] | G,[B,C] [B,C][B,C] | F,[A,C] [A,C][A,C] | %70
 C,[G,C] [F,C][=F,C] | B,,[F,B,] [F,B,][F,B,] | B,,[^G,B,] [G,B,][G,B,] | C,[F,A,] C,[G,B,] | %74
 [F,A,]2 z2 |{A,,C,E,} A,A,A,A, |{A,,C,E,} A,A,A,A, |{D,,F,,A,,} D,D,{^D,,F,,A,,} ^D,D, | %78
{E,,G,,B,,} E,E,E,E, |{A,,C,E,} A,A,A,A, |{A,,C,E,} A,A,A,A, |{D,,F,,A,,} D,D,{E,,G,,B,,} E,E, | %82
 [A,,A,]2 ||[K:C] z2 | ([A,,E,A,][I:staff -1].[EAce]) .[EAce].[EAce] | %85
[I:staff +1] ([A,,E,A,][I:staff -1].[EAce]) .[EAce].[EAce] | %86
[I:staff +1] .[A,,E,A,][I:staff -1].[EAce][I:staff +1] .[A,,E,A,][I:staff -1].[EAce] | %87
[I:staff +1] ([A,,E,A,][I:staff -1].[EAce]) .[EAce].[EAce] | %88
[I:staff +1] ([E,,B,,E,][I:staff -1].[B,EB]) .[B,EB].[B,EB] | %89
[I:staff +1] ([E,,B,,E,][I:staff -1].[B,EB]) .[B,EB].[B,EB] | %90
[I:staff +1] .[E,,B,,E,][I:staff -1].[B,EB][I:staff +1] .[B,,,B,,][I:staff -1].[B,B] | %91
[I:staff +1] [E,,E,]2 z2 | .[C,,C,][I:staff -1].[Cc][I:staff +1] .[E,,E,][I:staff -1].[Ee] | %93
[I:staff +1] [G,,G,]2 z2 | C,C E,E | G,2 z2 | %96
 .[A,,,A,,][I:staff -1].[A,A][I:staff +1] .[C,,C,][I:staff -1].[Cc] |[I:staff +1] [E,,E,]2 z2 | %98
 A,,A, C,C | E,2 z2 | ([A,,E,A,][I:staff -1].[EAce]) .[EAce].[EAce] | %101
[I:staff +1] ([A,,E,A,][I:staff -1].[EAce]) .[EAce].[EAce] | %102
[I:staff +1] .[A,,E,A,][I:staff -1].[EAce][I:staff +1] .[A,,E,A,][I:staff -1].[EAce] | %103
[I:staff +1] ([G,,G,][I:staff -1].[^DA^d]) .[DAd].[DAd] | %104
[I:staff +1] .[E,,E,][I:staff -1].[A,EA][I:staff +1] .[D,,D,][I:staff -1].[B,FB] | %105
[I:staff +1] .[C,,C,][I:staff -1].[A,EA][I:staff +1] .[D,,D,][I:staff -1].[B,FB] | %106
[I:staff +1] .[E,,E,].[E,,E,] .[E,,E,].[E,,E,] | [A,,,A,,]2 ||[K:A] z2 |{A,,C,E,} A,A,A,A, | %110
{A,,C,E,} A,A,A,A, |{D,,F,,A,,} D,D,{^D,,F,,A,,} ^D,D, |{E,,G,,B,,} E,E,E,E, |{A,,C,E,} A,A,A,A, | %114
{A,,C,E,} A,A,A,A, |{D,,F,,A,,} D,D,{E,,G,,B,,} E,E, | [A,,A,]2 z2 |{A,,C,E,} A,A,A,A, | %118
{A,,C,E,} A,A,A,A, |{D,,F,,A,,} D,D,{^D,,F,,A,,} ^D,D, |{E,,G,,B,,} E,E,E,E, |{A,,C,E,} A,A,A,A, | %122
{A,,C,E,} A,A,A,A, |{D,,F,,A,,} D,D,{E,,G,,B,,} E,E, |{A,,C,E,} A,A, A,A, |{A,,C,E,} A,A,A,A, | %126
{A,,C,E,} A,A,A,A, |{A,,C,E,} A,A,A,A, |{D,,F,,A,,} D,D,D,D, |{A,,C,E,} A,A,A,A, | %130
{E,,G,,B,,} E,E,E,E, |{A,,C,E,} A,A,A,A, |{A,,C,E,} A,A,A,A, |{A,,C,E,} A,A,A,A, | %134
{D,,F,,A,,} D,D,D,D, |{A,,C,E,} A,A,A,A, |{E,,G,,B,,} E,E,E,E, | A,/E/C/E/ A,/E/C/E/ | %138
 A,/E/C/E/ A,/E/C/E/ | A,/E/C/E/ A,/E/C/E/ | A,/E/C/E/ A,/E/C/E/ | A,/F/D/F/ A,/F/D/F/ | %142
 A,/E/C/E/ A,/E/C/E/ | E,/E/B,/E/ E,/E/B,/E/ |{A,,C,E,} A,A,A,A, |{A,,C,E,} A,A,A,A, | %146
{A,,C,E,} A,A,A,A, |{D,,F,,A,,} D,D,D,D, |{A,,C,E,} A,A,A,A, |{E,,G,,B,,} E,E,E,E, | %150
{A,,C,E,} A,A,A,A, |{A,,C,E,} A,A,A,A, |{A,,C,E,} A,A,A,A, |{A,,C,E,} A,A,{A,,C,E,} A,A, | %154
 .A,,2 !>![A,,C,E,A,]2 | !>![A,,C,E,A,]2 z2 |] %156

